!!!OTL: WOLLT IHR HOEREN EIN NEU GEDICHT
!!!ARE: Europa, Mitteleuropa, Deutschland
!!!SCT: E1957
!!!YEM: Copyright 1995, estate of Helmut Schaffrath.
**kern
*ICvox
*Ivox
*M3/4
*k[b-]
*F:
{4f
=1
2f
4cc
=2
2a
4f
=3
4g
4b-
4dd
=4
2cc
4b-
=5
2cc}
{4b-
=6
2a
4b-
=7
2cc
4cc
=8
2cc
4a
=9
2g}
{4f
=10
2a
4b-
=11
2cc
4cc
=12
2b-
4a
=13
2g}
{4f
=14
2a
4b-
=15
2cc
4b-
=16
4a
8g
8f
4g
=17
2f}
==
!!!AGN: geistlich, Fest - Lied, Biblischer Stoff, Passion
!!!ONB: ESAC (Essen Associative Code) Database: ERK3
!!!AMT: simple triple
!!!AIN: vox
!!!EED: Helmut Schaffrath
!!!EEV: 1.0
*-
